contributed-vectors/deananddavid.svg

<svg xmlns="http://www.w3.org/2000/svg" xml:space="preserve" width="192" height="192" baseProfile="tiny"><path fill="#6DA678" d="M164.408 110.991c0-5.661-30.203-10.368-68.035-10.368l-.875.059c-37.832 0-68.034 4.648-68.034 10.31 0 0-3.791 51.973 49.736 65.64 13.236 3.379 26.768 3.134 39.885-.561 50.851-14.322 47.323-65.08 47.323-65.08zm-68.599 9.204c-36.03 0-65.238-5.282-65.238-8.077 0-2.796 29.208-8.077 65.238-8.077s65.239 5.281 65.239 8.077c0 2.486-29.209 8.077-65.239 8.077z"/><path fill="#87DED5" d="M99.623 86.752c2.725 14.646-5.652 24.614-6.144 24.123-.312-.311-10.718-5.902-12.357-21.388-1.558-14.714 5.988-24.124 6.299-23.813s9.32 5.592 12.202 21.078z"/><path fill="#FF877F" d="M102.84 29.234c6.946 13.182 1.202 25.723 1.286 25.971.145.424-12.875-3.234-18.979-17.561-5.8-13.613-.975-24.991-.575-24.79.401.201 10.924 2.443 18.268 16.38z"/><path fill="#F9DE90" d="M131.267 106.29c-9.943 11.094-22.952 10.536-22.863 9.847.057-.436-1.86-12.093 9.411-22.838 10.709-10.21 22.769-9.969 22.712-9.534-.058.436 1.252 10.796-9.26 22.525z"/><path fill="#87DCA4" d="M125.528 48.858c-6.836 6.766-15.198 5.905-15.113 5.465.053-.278-.73-7.864 6.948-14.353 7.296-6.167 15.058-5.548 15.004-5.27-.054.279.39 7.006-6.839 14.158z"/><path fill="#6DA678" d="M53.624 59.625c6.643 7.614 15.468 6.826 15.593 7.075.132.262 1.11-8.48-6.402-15.892-7.139-7.043-15.066-6.688-15.025-6.397.041.292-1.189 7.164 5.834 15.214z"/></svg>

<?xml version="1.0" encoding="utf-8"?>
<!-- Generator: Adobe Illustrator 16.0.0, SVG Export Plug-In . SVG Version: 6.00 Build 0)  -->
<!DOCTYPE svg PUBLIC "-//W3C//DTD SVG 1.1 Tiny//EN" "http://www.w3.org/Graphics/SVG/1.1/DTD/svg11-tiny.dtd">
<svg version="1.1" baseProfile="tiny" id="Layer_1" xmlns="http://www.w3.org/2000/svg" xmlns:xlink="http://www.w3.org/1999/xlink"
	 x="0px" y="0px" width="192px" height="192px" viewBox="0 0 192 192" xml:space="preserve">
<g>
	<path fill="#6DA678" d="M164.408,110.991c0-5.661-30.203-10.368-68.035-10.368l-0.875,0.059c-37.832,0-68.034,4.648-68.034,10.31
		c0,0-3.791,51.973,49.736,65.64c13.236,3.379,26.768,3.134,39.885-0.561C167.936,161.749,164.408,110.991,164.408,110.991z
		 M95.809,120.195c-36.03,0-65.238-5.282-65.238-8.077c0-2.796,29.208-8.077,65.238-8.077s65.239,5.281,65.239,8.077
		C161.048,114.604,131.839,120.195,95.809,120.195z"/>
	<path fill="#87DED5" d="M99.623,86.752c2.725,14.646-5.652,24.614-6.144,24.123c-0.312-0.311-10.718-5.902-12.357-21.388
		c-1.558-14.714,5.988-24.124,6.299-23.813S96.741,71.266,99.623,86.752z"/>
	<path fill="#FF877F" d="M102.84,29.234c6.946,13.182,1.202,25.723,1.286,25.971c0.145,0.424-12.875-3.234-18.979-17.561
		c-5.8-13.613-0.975-24.991-0.575-24.79C84.973,13.055,95.496,15.297,102.84,29.234z"/>
	<path fill="#F9DE90" d="M131.267,106.29c-9.943,11.094-22.952,10.536-22.863,9.847c0.057-0.436-1.86-12.093,9.411-22.838
		c10.709-10.21,22.769-9.969,22.712-9.534C140.469,84.201,141.779,94.561,131.267,106.29z"/>
	<path fill="#87DCA4" d="M125.528,48.858c-6.836,6.766-15.198,5.905-15.113,5.465c0.053-0.278-0.73-7.864,6.948-14.353
		c7.296-6.167,15.058-5.548,15.004-5.27C132.313,34.979,132.757,41.706,125.528,48.858z"/>
	<path fill="#6DA678" d="M53.624,59.625c6.643,7.614,15.468,6.826,15.593,7.075c0.132,0.262,1.11-8.48-6.402-15.892
		c-7.139-7.043-15.066-6.688-15.025-6.397C47.831,44.703,46.601,51.575,53.624,59.625z"/>
</g>
</svg>
